X:3082
T:L\aenge nok har jeg bondepige v\aeret
C:anon.
O:Denmark
F:http://abc.musicaviva.com/tunes/denmark/laenge-nok-har-jeg.abc
M:2/4
L:1/8
Q:1/4=154
K:A
"A"e2e2|"A"cA ce|"A"cA ce|"E"edB2|"A"e2e2|"A"cA ce|"E"ed BG|"A"A2z2:|
|:"A"c2cc|"A"A4|"E7"d2dd|"E7"B4|"A"e2e2|"A"cA ce|"E"ed BG|"A"A2z2:|
W:
W:
W:  From Musica Viva - http://www.musicaviva.com
W:  the Internet center for free sheet music downloads.
